img/icons/svg/icon__email.svg

<svg width="23" height="23" fill="none" xmlns="http://www.w3.org/2000/svg">
  <path d="M11.5 0C5.15898 0 0 5.15898 0 11.5C0 17.841 5.15898 23 11.5 23C13.5222 23 15.5107 22.468 17.2514 21.4607L15.8125 18.9718C14.5084 19.7263 13.0168 20.125 11.5 20.125C6.74392 20.125 2.87499 16.2561 2.87499 11.5C2.87499 6.74392 6.74392 2.87499 11.5 2.87499C16.2561 2.87499 20.125 6.74392 20.125 11.5V12.7522C20.125 13.6928 19.5207 14.375 18.6875 14.375C17.895 14.375 17.25 13.7299 17.25 12.9375V7.18749H15.2628C14.2516 6.30404 12.9451 5.74997 11.5 5.74997C8.32949 5.74997 5.74997 8.32949 5.74997 11.5C5.74997 14.6705 8.32949 17.25 11.5 17.25C13.0098 17.25 14.3748 16.653 15.4019 15.6978C16.1936 16.6386 17.3645 17.25 18.6875 17.25C21.1056 17.25 23 15.2742 23 12.7522V11.5C23 5.15898 17.841 0 11.5 0V0ZM11.5 14.375C9.91437 14.375 8.62501 13.0856 8.62501 11.5C8.62501 9.91437 9.91442 8.62501 11.5 8.62501C13.0856 8.62501 14.375 9.91442 14.375 11.5C14.375 13.0856 13.0856 14.375 11.5 14.375Z" fill="#304BAB"/>
</svg>

<svg width="23" height="23" fill="none" xmlns="http://www.w3.org/2000/svg"><path d="M11.5 0C5.159 0 0 5.159 0 11.5S5.159 23 11.5 23c2.022 0 4.01-.532 5.751-1.54l-1.439-2.488a8.621 8.621 0 01-4.312 1.153c-4.756 0-8.625-3.869-8.625-8.625S6.744 2.875 11.5 2.875s8.625 3.869 8.625 8.625v1.252c0 .94-.604 1.623-1.438 1.623a1.44 1.44 0 01-1.437-1.438v-5.75h-1.987C14.252 6.304 12.945 5.75 11.5 5.75c-3.17 0-5.75 2.58-5.75 5.75s2.58 5.75 5.75 5.75c1.51 0 2.875-.597 3.902-1.552.792.94 1.963 1.552 3.286 1.552 2.418 0 4.312-1.976 4.312-4.498V11.5C23 5.159 17.841 0 11.5 0zm0 14.375A2.878 2.878 0 018.625 11.5 2.878 2.878 0 0111.5 8.625a2.878 2.878 0 012.875 2.875 2.878 2.878 0 01-2.875 2.875z" fill="#304BAB"/></svg>
